X:1
T:Busy Fingers [1]
M:2/4
L:1/8
R:Reel
N:"Based on the version by Tommy Jackson."
N:Transcribed by Frank Maloy
B:Davis - Devil's Box, vol. 31, No. 3, Fall 1997; p. 40.
K:G
B/d/|"G"g/b/f/a/ g/d/B/G/|F/G/B/e/ d/B/G/B/|"C"c/e/d/c/ B/G/B/d/|"A7"A/B/^c/A/ "D7"dB/d/|
"G"g/b/f/a/ g/d/B/G/|F/G/B/e/ d/B/G/B/|"C"c/e/d/c/ "D7"B/G/A/F/|"G"[GB][G/B/][A/G/] [GB]:|
|:[GD]-|"G"[G/D/]B,/D/G/ "C"E/F/G/E/|"G"[G/D/]B,/D/G/ "C"E/F/G/E/|"G"D/B,/D/G/ B/d/e/g/|"D7"f/d/A/^c/ [d2f2]|
"G"[G/D/]B,/D/G/ "C"E/F/G/E/|"G"[G/D/]B,/D/G/ "C"E/F/G/E/|"G"D/B,/D/G/ E/F/G/A/|"D7"B/G/A/F/ "G"[GB]:|]

